lib/logo_tmp/nrk-logo-nrk-p3-title-below-on-light.svg

<svg width="35" height="35" viewBox="0 0 35 35" fill="none" xmlns="http://www.w3.org/2000/svg">
<path fill-rule="evenodd" clip-rule="evenodd" d="M0 0H34.6667V34.6667H0V0ZM11.1956 15.407H8.00004V27.0174H11.1956V15.407ZM15.2473 15.407H11.6588C11.6588 15.407 13.6976 18.7494 13.7206 18.7915C13.8768 19.0566 13.8864 19.2192 13.7338 19.4749L11.6588 22.872H15.2473C15.2473 22.872 16.9776 20.0461 17.2143 19.6538C17.4491 19.2614 17.4385 19.0174 17.2048 18.6146C16.9659 18.2082 16.9506 18.1832 15.5456 15.8933L15.2473 15.407ZM25.2971 15.407C25.2971 15.407 26.365 17.1253 26.4857 17.3306C26.7201 17.7348 26.7307 17.9793 26.495 18.373C26.3305 18.6459 24.9187 20.9823 24.9187 20.9823C25.1775 21.4047 25.5223 21.9572 25.825 22.4422C26.1359 22.9403 26.4023 23.3671 26.4856 23.5089C26.72 23.913 26.7306 24.1576 26.495 24.5513C26.4501 24.6258 26.3587 24.7792 26.2389 24.9804L26.2383 24.9813C25.9191 25.5173 25.3983 26.3915 25.0152 27.0174H21.7364L23.5317 24.0708L21.6696 20.9497L23.3394 18.2173H19.2944L17.6167 15.407H25.2971ZM19.0974 21.369C18.5921 22.1936 17.7466 23.5751 17.5884 23.8446C17.3626 24.2338 17.3524 24.4693 17.5793 24.8485C17.7377 25.1113 18.5898 26.5039 19.0975 27.3333C19.6053 26.5038 20.4573 25.1112 20.6157 24.8485C20.8426 24.4692 20.8323 24.2338 20.6066 23.8446C20.4481 23.5751 19.6027 22.1936 19.0974 21.369ZM8.00004 7.1561V13.6874H10.1436V7.1561H8.00004ZM14.2928 13.6874L13.06 8.19559C13.0007 7.90488 12.8432 7.64343 12.6139 7.4551C12.385 7.25852 12.0923 7.15219 11.7906 7.1561H10.4748L11.9468 13.6874H14.2928ZM14.6148 7.1561V13.6874H16.7584V7.1561H14.6148ZM17.7198 9.46506C17.9191 9.58167 18.1463 9.64209 18.3772 9.63987C18.3772 9.63987 18.3772 9.63986 18.3771 9.63986H18.3774C18.3773 9.63986 18.3773 9.63987 18.3772 9.63987C18.6069 9.64256 18.8329 9.58208 19.0306 9.46506C19.2253 9.35038 19.387 9.18714 19.4998 8.9913C19.6165 8.79187 19.6769 8.56462 19.6747 8.3336C19.6772 8.10399 19.6168 7.87809 19.4998 7.68047C19.3858 7.48676 19.2243 7.32529 19.0306 7.21131C18.8329 7.09451 18.607 7.03404 18.3774 7.03651C18.1464 7.0344 17.9192 7.09482 17.7198 7.21131C17.5241 7.3243 17.3608 7.48591 17.2459 7.68047C17.1289 7.87804 17.0684 8.10398 17.071 8.3336C17.0687 8.56464 17.1292 8.79193 17.2459 8.9913C17.3596 9.188 17.523 9.35138 17.7198 9.46506ZM20.0059 7.1561V13.6874H22.1497V7.1561H20.0059ZM25.0015 10.9507C24.9155 10.8068 24.8695 10.7317 24.8635 10.7253H24.8632C24.7974 10.6372 24.759 10.5316 24.7529 10.4218C24.7568 10.3171 24.7886 10.2155 24.8449 10.1273L26.6667 7.15595H24.3115C24.1644 7.39533 24.0309 7.61304 23.9111 7.80908C23.792 8.00533 23.6648 8.21539 23.5297 8.43923C23.3945 8.66308 23.261 8.88232 23.1292 9.09697C22.9973 9.31161 22.8823 9.49711 22.7842 9.65349C22.686 9.80987 22.6186 9.91875 22.5818 9.98007C22.4946 10.1117 22.4438 10.2641 22.4347 10.4218C22.4461 10.586 22.5 10.7445 22.591 10.8817C22.6277 10.937 22.6937 11.0443 22.7889 11.2037C22.8838 11.3629 22.9972 11.5484 23.1292 11.7602C23.2611 11.972 23.3946 12.1897 23.5297 12.4133C23.6644 12.6372 23.7915 12.8457 23.9111 13.0389C24.0307 13.2321 24.1642 13.4482 24.3115 13.6874H26.6667C26.4947 13.4054 26.3413 13.1524 26.2067 12.9285C26.0716 12.7046 25.9274 12.4669 25.7742 12.2156C25.6209 11.9642 25.4753 11.7266 25.3373 11.5026C25.1994 11.2786 25.0875 11.0946 25.0015 10.9507Z" fill="black"/>
</svg>

<svg xmlns="http://www.w3.org/2000/svg" viewBox="0 0 35 35"><path fill="#000" fill-rule="evenodd" d="M0 0h34.667v34.667H0V0Zm11.196 15.407H8v11.61h3.196v-11.61Zm4.051 0H11.66s2.039 3.342 2.062 3.384c.156.266.165.428.013.684l-2.075 3.397h3.588s1.73-2.826 1.967-3.218c.235-.393.225-.637-.01-1.04-.238-.406-.253-.43-1.658-2.72l-.299-.487Zm10.05 0s1.068 1.718 1.189 1.924c.234.404.245.648.009 1.042a9958.7 9958.7 0 0 1-1.576 2.61c.258.422.603.974.906 1.46.31.497.577.924.66 1.066.235.404.246.649.01 1.042l-.256.43c-.32.536-.84 1.41-1.224 2.036h-3.279l1.796-2.946-1.862-3.121 1.67-2.733h-4.046l-1.677-2.81h7.68Zm-6.2 5.962a364.71 364.71 0 0 0-1.509 2.476c-.225.389-.236.624-.009 1.004.159.262 1.01 1.655 1.518 2.484.508-.83 1.36-2.222 1.519-2.484.227-.38.216-.615-.01-1.004a379.74 379.74 0 0 0-1.509-2.476ZM8 7.156v6.531h2.144v-6.53H8Zm6.293 6.531L13.06 8.196a1.293 1.293 0 0 0-.446-.74 1.239 1.239 0 0 0-.823-.3h-1.316l1.472 6.531h2.346Zm.322-6.53v6.53h2.143v-6.53h-2.143Zm3.105 2.308c.2.117.426.177.657.175.23.003.456-.058.654-.175a1.307 1.307 0 0 0 .644-1.131 1.255 1.255 0 0 0-.175-.654 1.323 1.323 0 0 0-.47-.469 1.258 1.258 0 0 0-.653-.174 1.313 1.313 0 0 0-1.132.644 1.254 1.254 0 0 0-.174.653 1.296 1.296 0 0 0 .649 1.131Zm2.286-2.309v6.531h2.144v-6.53h-2.144ZM25 10.951a5.197 5.197 0 0 0-.138-.226.56.56 0 0 1-.11-.303.588.588 0 0 1 .092-.295l1.822-2.971H24.31a313.335 313.335 0 0 0-.781 1.283 105.098 105.098 0 0 1-.948 1.541.893.893 0 0 0-.147.442.951.951 0 0 0 .156.46c.037.055.103.162.198.322.095.159.208.344.34.556.132.212.266.43.4.653.135.224.262.433.382.626l.4.648h2.356c-.172-.282-.326-.535-.46-.758a183.366 183.366 0 0 0-.87-1.426c-.138-.224-.25-.408-.335-.552Z" clip-rule="evenodd"/></svg>
